Origami/32x32/apps/supermeatboy.svg

<svg width="32" height="32" version="1.1" viewBox="0 0 32 32" xmlns="http://www.w3.org/2000/svg">
 <path d="M 16,3 C 11.817433,3.1149114 7.1394833,3.7582972 3.529541,4.6824254 2.5450103,4.9385231 2.1763763,5.0806082 2,5.3502718 V 29.672848 C 2,30.547367 7.2500175,30.985014 8.0976566,31 9.0000175,30.985014 13,30.547367 13,29.672848 V 27 h 3 3 v 2.672848 C 19,30.547367 22.999982,30.985014 23.902343,31 24.749982,30.985014 30,30.547367 30,29.672848 V 5.3502718 C 29.823624,5.0806082 29.45499,4.9385231 28.470459,4.6824254 24.860517,3.7582972 20.182567,3.1149114 16,3 Z" style="fill:#130202;opacity:.2"/>
 <path d="M 16,2 C 11.817433,2.1149114 7.1394833,2.7582972 3.529541,3.6824254 2.5450103,3.9385231 2.1763763,4.0806082 2,4.3502718 V 28.672848 C 2,29.547367 7.2500175,29.985014 8.0976566,30 9.0000175,29.985014 13,29.547367 13,28.672848 V 26 h 3 3 v 2.672848 C 19,29.547367 22.999982,29.985014 23.902343,30 24.749982,29.985014 30,29.547367 30,28.672848 V 4.3502718 C 29.823624,4.0806082 29.45499,3.9385231 28.470459,3.6824254 24.860517,2.7582972 20.182567,2.1149114 16,2 Z" style="fill:#e84343"/>
 <path d="m8 16.321001c5.315333-0.337717 10.640667-0.509729 16 0-0.882667 5.508859-4.114667 5.569198-7.333333 5.656555-3.62 0.239555-8.026667-1.424721-8.666667-5.656555" style="opacity:.2"/>
 <path d="m8.02533 13.5c1.2143953-0.120899 1.209508-0.133951 3.367076-0.313926 0.23396-0.68143 0.445929-1.089464-0.405614-2.358904-0.937674-1.4143811-2.44345-0.805078-3.0543133 0.263093-0.5222874 1.199373-0.3817887 1.953618 0.0928513 2.409737" style="fill:#2f2f2f"/>
 <path d="m10 11.399535c0 0.273941-0.2235495 0.499999-0.4999995 0.499999-0.276451 0-0.5000005-0.226058-0.5000005-0.499999 0-0.273943 0.2235495-0.500001 0.5000005-0.500001 0.27645 0 0.4999995 0.226058 0.4999995 0.500001" style="fill:#ffffff"/>
 <path d="m20.314582 13.990791c1.228029 0.02289 3.018749-0.0041 3.174841-0.0041 0.50099-0.35443 0.853398-1.736707-0.03238-3.097574-0.972136-1.5203578-2.539872-0.8654-3.174841 0.282807-0.542897 1.289241-0.171441 2.141719 0.03238 2.810707" style="opacity:.2"/>
 <path d="m20.314582 12.990791c1.228029 0.02289 3.018749-0.0041 3.174841-0.0041 0.50099-0.35443 0.853398-1.736707-0.03238-3.0975733-0.972136-1.5203581-2.539872-0.8654003-3.174841 0.2828063-0.542897 1.289241-0.171441 2.141719 0.03238 2.810707" style="fill:#2f2f2f"/>
 <path d="M 22,10.500001 C 22,10.778397 21.775684,11 21.498288,11 21.224316,11 21,10.778397 21,10.500001 c 0,-0.273942 0.224316,-0.5 0.498288,-0.5 0.277396,0 0.501712,0.226058 0.501712,0.5 m 0,0" style="fill:#ffffff"/>
 <path d="m8 15.321001c5.315333-0.337717 10.640667-0.509729 16 0-0.882667 5.508859-4.114667 5.569198-7.333333 5.656555-3.62 0.239555-8.026667-1.424721-8.666667-5.656555" style="fill:#2f2f2f"/>
 <path d="m9.0000009 17.100152c0.064927 0.306434-0.1078515 0.626372 0.1828856 0.820878 1.8006915 1.199798 5.1798725 2.03325 7.4733015 2.078295 3.03506 0.0157 5.427324-0.537178 6.241819-1.582053 0.177472-0.229313 0.06643-1.000113 0.08016-1.341353l-1.709155-0.04027 1.709155-0.154921v-0.817261h-7.973317l-0.0097 0.936533h-1.987095l-0.01611-1.000003-3.9886576-1e-6 0.00321 0.962974 1.3126476 0.04299" style="fill:#ffffff"/>
 <path d="m7.0115437 14.368188v0.03807c-0.015573 0.04713-0.015573 0.0991 0 0.146233 0.015573 0.05922 0.05282 0.106352 0.092778 0.153486 0.1483092 0.163152 0.3758513 0.26467 0.6081347 0.288237 0.2356688 0.02356 0.9762144-0.02599 1.1854725-0.127502 0.1828466-0.08762 0.3413138-0.210286 0.5234831-0.299718 0.1774293-0.08278 0.3677256-0.127502 0.5715658-0.138983 0.2912002-0.01209 0.5817232 0.05439 0.8783422 0.02599 0.1456-0.01209 0.288492-0.04954 0.407679-0.127502 0.05824-0.03807 0.111062-0.0852 0.148309-0.137169 0.04267-0.06163 0.06636-0.12025 0.07111-0.189137 0.0081-0.08037-0.01557-0.158319-0.05282-0.231436-0.03725-0.0707-0.09549-0.134752-0.158467-0.189137-0.129347-0.111186-0.285782-0.190949-0.434091-0.280986-0.07923-0.04955-0.161176-0.103935-0.259371-0.129918-0.113772-0.03082-0.240409-0.0097-0.362308-0.02356-0.129347-0.01209-0.2458283-0.05922-0.3677249-0.08943-0.2485362-0.06587-0.5133251-0.0707-0.7699873-0.0284-0.2539542 0.03988-0.4943637 0.134753-0.7144571 0.259837-0.2092574 0.117832-0.9023987 0.273734-0.9972077 0.474352-0.018287 0.03988-0.031827 0.08278-0.05282 0.122667-0.073815 0.177048-0.1848779 0.340202-0.317611 0.484018" style="opacity:.2"/>
 <path d="m7.0115437 13.368188v0.03807c-0.015573 0.04713-0.015573 0.0991 0 0.146233 0.015573 0.05922 0.05282 0.106352 0.092778 0.153486 0.1483092 0.163152 0.3758513 0.26467 0.6081347 0.288237 0.2356688 0.02356 0.9762144-0.02599 1.1854725-0.127502 0.1828466-0.08762 0.3413138-0.210286 0.5234831-0.299718 0.1774293-0.08278 0.3677256-0.127502 0.5715658-0.138983 0.2912002-0.01209 0.5817232 0.05439 0.8783422 0.02599 0.1456-0.01209 0.288492-0.04954 0.407679-0.127502 0.05824-0.03807 0.111062-0.0852 0.148309-0.137169 0.04267-0.06163 0.06636-0.12025 0.07111-0.189137 0.0081-0.08037-0.01557-0.158319-0.05282-0.231436-0.03725-0.0707-0.09549-0.134752-0.158467-0.189137-0.129347-0.111186-0.285782-0.190949-0.434091-0.280986-0.07923-0.04955-0.161176-0.103935-0.259371-0.129918-0.113772-0.03082-0.240409-0.0097-0.362308-0.02356-0.129347-0.01209-0.2458283-0.05922-0.3677249-0.08943-0.2485362-0.06587-0.5133251-0.0707-0.7699873-0.0284-0.2539542 0.03988-0.4943637 0.134753-0.7144571 0.259837-0.2092574 0.117832-0.9023987 0.273734-0.9972077 0.474352-0.018287 0.03988-0.031827 0.08278-0.05282 0.122667-0.073815 0.177048-0.1848779 0.340202-0.317611 0.484018" style="fill:#cd5d82"/>
 <path d="m9.7955895 4.8704498 1.1717195-0.7980671c0.210827-0.1438303 0.504315-0.063097 0.638055 0.1520127l0.643953 1.2817442 2.023017 3.0072529c0.141459 0.210354-0.298335 0.6489637-0.512934 0.7878757l-0.970922 0.6285157c-0.214589 0.1389031-0.504361 0.06318-0.638129-0.1519395l-1.219643-2.2883743-1.4483952-2.0010775c-0.1487865-0.2054718 0.101049-0.4744034 0.3122475-0.6183248z" style="opacity:.2"/>
 <path d="m9.7955895 3.8704502 1.1717195-0.7980671c0.210827-0.1438303 0.504315-0.063097 0.638055 0.1520127l0.643953 1.2817442 2.023017 3.0072529c0.141459 0.210354-0.298335 0.6489637-0.512934 0.7878757l-0.970922 0.6285157c-0.214589 0.138903-0.504361 0.06318-0.638129-0.1519395l-1.219643-2.2883743-1.4483952-2.0010775c-0.1487865-0.2054718 0.101049-0.4744034 0.3122475-0.6183248z" style="fill:#e6e6e6"/>
 <path d="m13.995054 4.3306772 0.909967 1.0765451c0.164 0.1940344 0.106307 0.48675-0.10155 0.6351441l-1.251962 0.7346069-2.89317 2.2238239c-0.202376 0.1554683-0.6854217-0.2363842-0.8447037-0.4345822l-0.7207147-0.8946209c-0.159282-0.198198-0.1062502-0.487314 0.1015132-0.635508l2.2276212-1.3792065 1.916489-1.5795874c0.196803-0.1622046 0.491442 0.059067 0.655452 0.253094z" style="opacity:.2"/>
 <path d="m13.995054 3.3306776 0.909967 1.0765451c0.164 0.1940344 0.106307 0.48675-0.10155 0.6351441l-1.251962 0.7346069-2.89317 2.2238239c-0.202376 0.1554683-0.6854217-0.2363842-0.8447037-0.4345822l-0.7207147-0.8946209c-0.159282-0.198198-0.1062502-0.487314 0.1015132-0.635508l2.2276212-1.3792065 1.916489-1.5795874c0.196803-0.1622046 0.491442 0.059067 0.655452 0.253094z" style="fill:#efefef"/>
 <path d="m16 2c-4.182567 0.1149114-8.8607608 0.7575124-12.470703 1.6816406-0.9845307 0.2560977-1.3529206 0.3983052-1.5292969 0.6679688v1c0.1763763-0.2696636 0.5447662-0.4118711 1.5292969-0.6679688 3.6099423-0.9241282 8.2881361-1.5667292 12.470703-1.6816406 4.182567 0.1149114 8.860761 0.7575124 12.470703 1.6816406 0.984531 0.2560977 1.352921 0.3983052 1.529297 0.6679688v-1c-0.176376-0.2696636-0.544766-0.4118711-1.529297-0.6679688-3.609942-0.9241282-8.288136-1.5667292-12.470703-1.6816406z" style="fill:#ffffff;opacity:.2"/>
</svg>

<svg xmlns="http://www.w3.org/2000/svg" width="32" height="32" version="1.1" viewBox="0 0 32 32">
 <path style="opacity:0.2;fill:#130202" d="M 16,3 C 11.817433,3.1149114 7.1394833,3.7582972 3.529541,4.6824254 2.5450103,4.9385231 2.1763763,5.0806082 2,5.3502718 V 29.672848 C 2,30.547367 7.2500175,30.985014 8.0976566,31 9.0000175,30.985014 13,30.547367 13,29.672848 V 27 h 3 3 v 2.672848 C 19,30.547367 22.999982,30.985014 23.902343,31 24.749982,30.985014 30,30.547367 30,29.672848 V 5.3502718 C 29.823624,5.0806082 29.45499,4.9385231 28.470459,4.6824254 24.860517,3.7582972 20.182567,3.1149114 16,3 Z"/>
 <path style="fill:#e84343" d="M 16,2 C 11.817433,2.1149114 7.1394833,2.7582972 3.529541,3.6824254 2.5450103,3.9385231 2.1763763,4.0806082 2,4.3502718 V 28.672848 C 2,29.547367 7.2500175,29.985014 8.0976566,30 9.0000175,29.985014 13,29.547367 13,28.672848 V 26 h 3 3 v 2.672848 C 19,29.547367 22.999982,29.985014 23.902343,30 24.749982,29.985014 30,29.547367 30,28.672848 V 4.3502718 C 29.823624,4.0806082 29.45499,3.9385231 28.470459,3.6824254 24.860517,2.7582972 20.182567,2.1149114 16,2 Z"/>
 <path style="opacity:0.2" d="m 8,16.321001 c 5.315333,-0.337717 10.640667,-0.509729 16,0 -0.882667,5.508859 -4.114667,5.569198 -7.333333,5.656555 C 13.046667,22.217111 8.64,20.552835 8,16.321001 m 0,0"/>
 <path style="fill:#2f2f2f" d="m 8.02533,13.5 c 1.2143953,-0.120899 1.209508,-0.133951 3.367076,-0.313926 0.23396,-0.68143 0.445929,-1.089464 -0.405614,-2.358904 C 10.049118,9.4127889 8.543342,10.022092 7.9324787,11.090263 7.4101913,12.289636 7.55069,13.043881 8.02533,13.5 m 0,0"/>
 <path style="fill:#ffffff" d="M 10,11.399535 C 10,11.673476 9.7764505,11.899534 9.5000005,11.899534 9.2235495,11.899534 9,11.673476 9,11.399535 9,11.125592 9.2235495,10.899534 9.5000005,10.899534 9.7764505,10.899534 10,11.125592 10,11.399535 m 0,0"/>
 <path style="opacity:0.2" d="m 20.314582,13.990791 c 1.228029,0.02289 3.018749,-0.0041 3.174841,-0.0041 0.50099,-0.35443 0.853398,-1.736707 -0.03238,-3.097574 -0.972136,-1.5203578 -2.539872,-0.8654 -3.174841,0.282807 -0.542897,1.289241 -0.171441,2.141719 0.03238,2.810707"/>
 <path style="fill:#2f2f2f" d="m 20.314582,12.990791 c 1.228029,0.02289 3.018749,-0.0041 3.174841,-0.0041 0.50099,-0.35443 0.853398,-1.736707 -0.03238,-3.0975733 -0.972136,-1.5203581 -2.539872,-0.8654003 -3.174841,0.2828063 -0.542897,1.289241 -0.171441,2.141719 0.03238,2.810707"/>
 <path style="fill:#ffffff" d="M 22,10.500001 C 22,10.778397 21.775684,11 21.498288,11 21.224316,11 21,10.778397 21,10.500001 c 0,-0.273942 0.224316,-0.5 0.498288,-0.5 0.277396,0 0.501712,0.226058 0.501712,0.5 m 0,0"/>
 <path style="fill:#2f2f2f" d="m 8,15.321001 c 5.315333,-0.337717 10.640667,-0.509729 16,0 -0.882667,5.508859 -4.114667,5.569198 -7.333333,5.656555 C 13.046667,21.217111 8.64,19.552835 8,15.321001 m 0,0"/>
 <path style="fill:#ffffff" d="m 9.0000009,17.100152 c 0.064927,0.306434 -0.1078515,0.626372 0.1828856,0.820878 1.8006915,1.199798 5.1798725,2.03325 7.4733015,2.078295 3.03506,0.0157 5.427324,-0.537178 6.241819,-1.582053 0.177472,-0.229313 0.06643,-1.000113 0.08016,-1.341353 l -1.709155,-0.04027 1.709155,-0.154921 V 16.063467 H 15.00485 L 14.99515,17 h -1.987095 l -0.01611,-1.000003 -3.9886576,-1e-6 0.00321,0.962974 1.3126476,0.04299"/>
 <path style="opacity:0.2" d="m 7.0115437,14.368188 v 0.03807 c -0.015573,0.04713 -0.015573,0.0991 0,0.146233 0.015573,0.05922 0.05282,0.106352 0.092778,0.153486 0.1483092,0.163152 0.3758513,0.26467 0.6081347,0.288237 0.2356688,0.02356 0.9762144,-0.02599 1.1854725,-0.127502 0.1828466,-0.08762 0.3413138,-0.210286 0.5234831,-0.299718 0.1774293,-0.08278 0.3677256,-0.127502 0.5715658,-0.138983 0.2912002,-0.01209 0.5817232,0.05439 0.8783422,0.02599 0.1456,-0.01209 0.288492,-0.04954 0.407679,-0.127502 0.05824,-0.03807 0.111062,-0.0852 0.148309,-0.137169 0.04267,-0.06163 0.06636,-0.12025 0.07111,-0.189137 0.0081,-0.08037 -0.01557,-0.158319 -0.05282,-0.231436 -0.03725,-0.0707 -0.09549,-0.134752 -0.158467,-0.189137 -0.129347,-0.111186 -0.285782,-0.190949 -0.434091,-0.280986 -0.07923,-0.04955 -0.161176,-0.103935 -0.259371,-0.129918 -0.113772,-0.03082 -0.240409,-0.0097 -0.362308,-0.02356 -0.129347,-0.01209 -0.2458283,-0.05922 -0.3677249,-0.08943 -0.2485362,-0.06587 -0.5133251,-0.0707 -0.7699873,-0.0284 -0.2539542,0.03988 -0.4943637,0.134753 -0.7144571,0.259837 -0.2092574,0.117832 -0.9023987,0.273734 -0.9972077,0.474352 -0.018287,0.03988 -0.031827,0.08278 -0.05282,0.122667 C 7.255349,14.06123 7.1442861,14.224384 7.011553,14.3682"/>
 <path style="fill:#cd5d82" d="m 7.0115437,13.368188 v 0.03807 c -0.015573,0.04713 -0.015573,0.0991 0,0.146233 0.015573,0.05922 0.05282,0.106352 0.092778,0.153486 0.1483092,0.163152 0.3758513,0.26467 0.6081347,0.288237 0.2356688,0.02356 0.9762144,-0.02599 1.1854725,-0.127502 0.1828466,-0.08762 0.3413138,-0.210286 0.5234831,-0.299718 0.1774293,-0.08278 0.3677256,-0.127502 0.5715658,-0.138983 0.2912002,-0.01209 0.5817232,0.05439 0.8783422,0.02599 0.1456,-0.01209 0.288492,-0.04954 0.407679,-0.127502 0.05824,-0.03807 0.111062,-0.0852 0.148309,-0.137169 0.04267,-0.06163 0.06636,-0.12025 0.07111,-0.189137 0.0081,-0.08037 -0.01557,-0.158319 -0.05282,-0.231436 -0.03725,-0.0707 -0.09549,-0.134752 -0.158467,-0.189137 -0.129347,-0.111186 -0.285782,-0.190949 -0.434091,-0.280986 -0.07923,-0.04955 -0.161176,-0.103935 -0.259371,-0.129918 -0.113772,-0.03082 -0.240409,-0.0097 -0.362308,-0.02356 -0.129347,-0.01209 -0.2458283,-0.05922 -0.3677249,-0.08943 -0.2485362,-0.06587 -0.5133251,-0.0707 -0.7699873,-0.0284 -0.2539542,0.03988 -0.4943637,0.134753 -0.7144571,0.259837 -0.2092574,0.117832 -0.9023987,0.273734 -0.9972077,0.474352 -0.018287,0.03988 -0.031827,0.08278 -0.05282,0.122667 C 7.255349,13.06123 7.1442861,13.224384 7.011553,13.3682"/>
 <path style="opacity:0.2" d="M 9.7955895,4.8704498 10.967309,4.0723827 c 0.210827,-0.1438303 0.504315,-0.063097 0.638055,0.1520127 l 0.643953,1.2817442 2.023017,3.0072529 c 0.141459,0.210354 -0.298335,0.6489637 -0.512934,0.7878757 l -0.970922,0.6285157 c -0.214589,0.1389031 -0.504361,0.06318 -0.638129,-0.1519395 L 10.930706,7.4894701 9.4823108,5.4883926 C 9.3335243,5.2829208 9.5833598,5.0139892 9.7945583,4.8700678 Z"/>
 <path style="fill:#e6e6e6" d="M 9.7955895,3.8704502 10.967309,3.0723831 c 0.210827,-0.1438303 0.504315,-0.063097 0.638055,0.1520127 l 0.643953,1.2817442 2.023017,3.0072529 c 0.141459,0.210354 -0.298335,0.6489637 -0.512934,0.7878757 l -0.970922,0.6285157 c -0.214589,0.138903 -0.504361,0.06318 -0.638129,-0.1519395 L 10.930706,6.4894705 9.4823108,4.488393 C 9.3335243,4.2829212 9.5833598,4.0139896 9.7945583,3.8700682 Z"/>
 <path style="opacity:0.2" d="m 13.995054,4.3306772 0.909967,1.0765451 c 0.164,0.1940344 0.106307,0.48675 -0.10155,0.6351441 l -1.251962,0.7346069 -2.89317,2.2238239 C 10.455963,9.1562655 9.9729173,8.764413 9.8136353,8.566215 L 9.0929206,7.6715941 C 8.9336386,7.4733961 8.9866704,7.1842801 9.1944338,7.0360861 L 11.422055,5.6568796 13.338544,4.0772922 c 0.196803,-0.1622046 0.491442,0.059067 0.655452,0.253094 z"/>
 <path style="fill:#efefef" d="m 13.995054,3.3306776 0.909967,1.0765451 c 0.164,0.1940344 0.106307,0.48675 -0.10155,0.6351441 l -1.251962,0.7346069 -2.89317,2.2238239 C 10.455963,8.1562659 9.9729173,7.7644134 9.8136353,7.5662154 L 9.0929206,6.6715945 C 8.9336386,6.4733965 8.9866704,6.1842805 9.1944338,6.0360865 L 11.422055,4.65688 13.338544,3.0772926 c 0.196803,-0.1622046 0.491442,0.059067 0.655452,0.253094 z"/>
 <path style="fill:#ffffff;opacity:0.2" d="M 16 2 C 11.817433 2.1149114 7.1392392 2.7575124 3.5292969 3.6816406 C 2.5447662 3.9377383 2.1763763 4.0799458 2 4.3496094 L 2 5.3496094 C 2.1763763 5.0799458 2.5447662 4.9377383 3.5292969 4.6816406 C 7.1392392 3.7575124 11.817433 3.1149114 16 3 C 20.182567 3.1149114 24.860761 3.7575124 28.470703 4.6816406 C 29.455234 4.9377383 29.823624 5.0799458 30 5.3496094 L 30 4.3496094 C 29.823624 4.0799458 29.455234 3.9377383 28.470703 3.6816406 C 24.860761 2.7575124 20.182567 2.1149114 16 2 z"/>
</svg>
